packages/ui-icons/svg/Line/screen-capture.svg

<svg viewBox="0 0 1920 1920" xmlns="http://www.w3.org/2000/svg">
    <path d="M1706.67 106.667h-320V0h320C1824.49 0 1920 95.513 1920 213.333v320h-106.67v-320c0-58.91-47.75-106.666-106.66-106.666ZM533.333 0v106.667h-320c-58.91 0-106.666 47.756-106.666 106.666v320H0v-320C0 95.513 95.513 0 213.333 0h320ZM0 1386.67h106.667v320c0 58.91 47.756 106.66 106.666 106.66h320V1920h-320C95.513 1920 0 1824.49 0 1706.67v-320ZM1386.67 1920v-106.67h320c58.91 0 106.66-47.75 106.66-106.66v-320H1920v320c0 117.82-95.51 213.33-213.33 213.33h-320ZM1280 960c0 176.73-143.27 320-320 320-176.731 0-320-143.27-320-320 0-176.731 143.269-320 320-320 176.73 0 320 143.269 320 320Zm106.67 0c0 235.64-191.03 426.67-426.67 426.67-235.641 0-426.667-191.03-426.667-426.67 0-235.641 191.026-426.667 426.667-426.667 235.64 0 426.67 191.026 426.67 426.667Z" fill-rule="evenodd"/>
</svg>

<svg viewBox="0 0 1920 1920" version="1.1" xmlns="http://www.w3.org/2000/svg">
    <path d="M1706.67,106.667 L1386.67,106.667 L1386.67,0 L1706.67,0 C1824.49,0 1920,95.5126 1920,213.333 L1920,533.333 L1813.33,533.333 L1813.33,213.333 C1813.33,154.423 1765.58,106.667 1706.67,106.667 Z M533.333,0 L533.333,106.667 L213.333,106.667 C154.423,106.667 106.667,154.423 106.667,213.333 L106.667,533.333 L0,533.333 L0,213.333 C0,95.5126 95.5126,0 213.333,0 L533.333,0 Z M0,1386.67 L106.667,1386.67 L106.667,1706.67 C106.667,1765.58 154.423,1813.33 213.333,1813.33 L533.333,1813.33 L533.333,1920 L213.333,1920 C95.5126,1920 0,1824.49 0,1706.67 L0,1386.67 Z M1386.67,1920 L1386.67,1813.33 L1706.67,1813.33 C1765.58,1813.33 1813.33,1765.58 1813.33,1706.67 L1813.33,1386.67 L1920,1386.67 L1920,1706.67 C1920,1824.49 1824.49,1920 1706.67,1920 L1386.67,1920 Z M1280,960 C1280,1136.73 1136.73,1280 960,1280 C783.269,1280 640,1136.73 640,960 C640,783.269 783.269,640 960,640 C1136.73,640 1280,783.269 1280,960 Z M1386.67,960 C1386.67,1195.64 1195.64,1386.67 960,1386.67 C724.359,1386.67 533.333,1195.64 533.333,960 C533.333,724.359 724.359,533.333 960,533.333 C1195.64,533.333 1386.67,724.359 1386.67,960 Z" stroke="none" stroke-width="1" fill-rule="evenodd"/>
</svg>
